svgs/thin/container-storage.svg

<svg xmlns="http://www.w3.org/2000/svg" viewBox="0 0 640 512"><!-- Font Awesome Pro 6.0.0-alpha2 by @fontawesome - https://fontawesome.com License - https://fontawesome.com/license (Commercial License) --><path d="M416 416C420.422 416 424 412.422 424 408V104C424 99.578 420.422 96 416 96S408 99.578 408 104V408C408 412.422 411.578 416 416 416ZM512 416C516.422 416 520 412.422 520 408V104C520 99.578 516.422 96 512 96S504 99.578 504 104V408C504 412.422 507.578 416 512 416ZM320 416C324.422 416 328 412.422 328 408V104C328 99.578 324.422 96 320 96S312 99.578 312 104V408C312 412.422 315.578 416 320 416ZM128 416C132.422 416 136 412.422 136 408V104C136 99.578 132.422 96 128 96S120 99.578 120 104V408C120 412.422 123.578 416 128 416ZM224 416C228.422 416 232 412.422 232 408V104C232 99.578 228.422 96 224 96S216 99.578 216 104V408C216 412.422 219.578 416 224 416ZM632 464H624V48H632C636.422 48 640 44.422 640 40S636.422 32 632 32H8C3.578 32 0 35.578 0 40S3.578 48 8 48H16V464H8C3.578 464 0 467.578 0 472S3.578 480 8 480H632C636.422 480 640 476.422 640 472S636.422 464 632 464ZM608 464H32V48H608V464Z"/></svg>

<svg xmlns="http://www.w3.org/2000/svg" viewBox="0 0 640 512"><!--! Font Awesome Pro 6.4.0 by @fontawesome - https://fontawesome.com License - https://fontawesome.com/license (Commercial License) Copyright 2023 Fonticons, Inc. --><path d="M8 32c-4.4 0-8 3.6-8 8s3.6 8 8 8H32V464H8c-4.4 0-8 3.6-8 8s3.6 8 8 8H40 600h32c4.4 0 8-3.6 8-8s-3.6-8-8-8H608V48h24c4.4 0 8-3.6 8-8s-3.6-8-8-8H600 40 8zM48 464V48H592V464H48zm88-360c0-4.4-3.6-8-8-8s-8 3.6-8 8V408c0 4.4 3.6 8 8 8s8-3.6 8-8V104zm96 0c0-4.4-3.6-8-8-8s-8 3.6-8 8V408c0 4.4 3.6 8 8 8s8-3.6 8-8V104zm96 0c0-4.4-3.6-8-8-8s-8 3.6-8 8V408c0 4.4 3.6 8 8 8s8-3.6 8-8V104zm96 0c0-4.4-3.6-8-8-8s-8 3.6-8 8V408c0 4.4 3.6 8 8 8s8-3.6 8-8V104zm96 0c0-4.4-3.6-8-8-8s-8 3.6-8 8V408c0 4.4 3.6 8 8 8s8-3.6 8-8V104z"/></svg>
